packages/ui-icons/src/Basic/16/Pay-friend_16.svg

<svg xmlns="http://www.w3.org/2000/svg" viewBox="0 0 20 20"><path d="M6 8a3 3 0 1 0-3-3 3 3 0 0 0 3 3Zm0-5a2 2 0 1 1-2 2 2 2 0 0 1 2-2Zm7 6h-2v3h-1v1h1v1h-1v1h1v1h1v-1h2v-1h-2v-1h1a2 2 0 1 0 0-4Zm0 3h-1v-2h1a1 1 0 1 1 0 2Zm-.5-5A5.49 5.49 0 0 0 8 9.33 7.11 7.11 0 0 0 6 9a9.31 9.31 0 0 0-4 1l1 8h6l.15-1.15A5.5 5.5 0 1 0 12.5 7ZM8.12 17H3.81l-.73-6.43A6.73 6.73 0 0 1 6 10a6.05 6.05 0 0 1 1.53.23A5.47 5.47 0 0 0 8.25 16Zm4.38 0a4.5 4.5 0 1 1 4.5-4.5 4.5 4.5 0 0 1-4.5 4.5Z"/></svg>

<svg id="ready" xmlns="http://www.w3.org/2000/svg" viewBox="0 0 20 20"><title>Megaicons_work_16_1.8_cp</title><path d="M6,8A3,3,0,1,0,3,5,3,3,0,0,0,6,8ZM6,3A2,2,0,1,1,4,5,2,2,0,0,1,6,3Zm7,6H11v3H10v1h1v1H10v1h1v1h1V15h2V14H12V13h1a2,2,0,1,0,0-4Zm0,3H12V10h1a1,1,0,1,1,0,2Zm-.5-5A5.49,5.49,0,0,0,8,9.33,7.11,7.11,0,0,0,6,9a9.31,9.31,0,0,0-4,1l1,8H9l.15-1.15A5.5,5.5,0,1,0,12.5,7ZM8.12,17H3.81l-.73-6.43A6.73,6.73,0,0,1,6,10a6.05,6.05,0,0,1,1.53.23A5.47,5.47,0,0,0,8.25,16Zm4.38,0A4.5,4.5,0,1,1,17,12.5,4.5,4.5,0,0,1,12.5,17Z"/></svg>
